src/main/resources/icons/AllIcons/nodes/modelClass.svg

<!-- Copyright 2000-2021 JetBrains s.r.o. Use of this source code is governed by the Apache 2.0 license that can be found in the LICENSE file. -->
<svg xmlns="http://www.w3.org/2000/svg" width="16" height="16" viewBox="0 0 16 16">
  <g fill="none" fill-rule="evenodd">
    <path fill="#40B6E0" fill-opacity=".6" d="M8,15 C4.134,15 1,11.866 1,8 C1,4.134 4.134,1 8,1 C11.866,1 15,4.134 15,8 L8,8 L8,15 Z"/>
    <path fill="#231F20" fill-opacity=".7" d="M8,11.0003992 C6.36297886,10.9992197 5.0002,9.68164691 5.0002,8.0004 C5.0002,6.3584 6.3402,5.0004 8.0982,5.0004 C9.28826904,5.0004 9.8293999,5.2701752 10.5162,5.83673096 L9.9,6.55426025 C9.54833171,6.18475342 8.94833171,6 8.1,6 C6.971,6 6,6.7124 6,8.0004 C6,9.23838015 6.99403496,9.9738152 8,9.99976486 L8,11.0003993 Z"/>
    <path fill="#9AA7B0" d="M10,14 L11,14 L11,12 L10,12 L10,14 Z M12,14 L13,14 L13,12 L12,12 L12,14 Z M10,11 L13,11 L13,10 L10,10 L10,11 Z M14,11 L15,11 L15,10 L14,10 L14,11 Z M11,11 L12,11 L12,10 L11,10 L11,11 Z M9,15 L16,15 L16,9 L9,9 L9,15 Z M14,14 L15,14 L15,12 L14,12 L14,14 Z"/>
  </g>
</svg>

<svg xmlns="http://www.w3.org/2000/svg" width="16" height="16" viewBox="0 0 16 16"><rect id="frame" width="16" height="16" fill="none"/><g fill="none" fill-rule="evenodd"><path fill="#40B6E0" fill-opacity=".6" d="M8 15a7 7 0 1 1 7-7H8v7z"/><path fill="#231F20" fill-opacity=".7" d="M8 11a2.998 2.998 0 0 1-3-3c0-1.642 1.34-3 3.098-3 1.19 0 1.731.27 2.418.837l-.616.717C9.548 6.184 8.948 6 8.1 6 6.971 6 6 6.712 6 8c0 1.238.994 1.974 2 2v1z"/><path fill="#9AA7B0" d="M10 14h1v-2h-1v2zm2 0h1v-2h-1v2zm-2-3h3v-1h-3v1zm4 0h1v-1h-1v1zm-3 0h1v-1h-1v1zm-2 4h7V9H9v6zm5-1h1v-2h-1v2z"/></g></svg>
